optimized/24/outline/table.svg

<svg viewBox="0 0 24 24" xmlns="http://www.w3.org/2000/svg" fill="currentColor" data-slot="icon">
  <g clip-path="url(#clip0_2208_12302)">
    <path d="M3 6C3 4.34315 4.34315 3 6 3H18C19.6569 3 21 4.34315 21 6V18C21 19.6569 19.6569 21 18 21H6C4.34315 21 3 19.6569 3 18V6ZM6 4.5C5.17157 4.5 4.5 5.17157 4.5 6V8.25H11.25V4.5H6ZM12.75 8.25H19.5V6C19.5 5.17157 18.8284 4.5 18 4.5H12.75V8.25ZM4.5 9.75V14.25H11.25V9.75H4.5ZM4.5 15.75V18C4.5 18.8284 5.17157 19.5 6 19.5H11.25V15.75H4.5ZM12.75 15.75V19.5H18C18.8284 19.5 19.5 18.8284 19.5 18V15.75H12.75ZM19.5 14.25V9.75H12.75V14.25H19.5Z"/>
  </g>
  <defs>
    <clipPath id="clip0_2208_12302">
      <rect width="24" height="24"/>
    </clipPath>
  </defs>
</svg>

<svg xmlns="http://www.w3.org/2000/svg" viewBox="0 0 24 24" fill="currentColor" data-slot="icon">
  <g clip-path="url(#a)">
    <path d="M3 6a3 3 0 0 1 3-3h12a3 3 0 0 1 3 3v12a3 3 0 0 1-3 3H6a3 3 0 0 1-3-3V6Zm3-1.5A1.5 1.5 0 0 0 4.5 6v2.25h6.75V4.5H6Zm6.75 3.75h6.75V6A1.5 1.5 0 0 0 18 4.5h-5.25v3.75ZM4.5 9.75v4.5h6.75v-4.5H4.5Zm0 6V18A1.5 1.5 0 0 0 6 19.5h5.25v-3.75H4.5Zm8.25 0v3.75H18a1.5 1.5 0 0 0 1.5-1.5v-2.25h-6.75Zm6.75-1.5v-4.5h-6.75v4.5h6.75Z"/>
  </g>
  <defs>
    <clipPath id="a">
      <rect width="24" height="24"/>
    </clipPath>
  </defs>
</svg>
